X: 11
T:Slap and Kiss
M:3/2
L:1/8
S:Marsden
Z:ps
K:G
ef | gfedB2g2dB AG | A2e2e2A2cdef | gfedB2g2dB AG | BcdBg2B2cdef || 
gfed BcdB dB AG | A2e2e2A2 cdef | gfed BcdB dB AG | B2g2g2B2cdec || 
G2B2G2e2 BcdB | A2c2A2a2AB cA | G2B2G2g2BcdB | G2g2BcdB AB cA || 
G2B2G2g2B2g2 | A2a2A2a2A2g2 | G2B2G2g2BcdB | G2g2BcdB AB cA || 
GA Bc dB de dB AG | AB cd edcB AB cA | GA Bc dB de dB AG | BcdB efge fgaf || 
gfed edcB cB AG | AB cd edcB AB cA | GA Bc dB de dB AG | BcdBg2B2d2g2 || 
B2G2D2g2dB AG | AB cd ec BA cdec | B2G2D2g2dB AG | BcdB g2B2cdec || 
gd>z=f ec>ze dB>z G | A2e2e2A2cdef | gd>z=f ec>ze dB>z G | G2g4B2cdec || 
B2g4ef gfed | cdef ec BA cdec | B2g4ef gfed | BcdB g2B2cdec || 
G2B2G2g2G2B2 | A2c2A2a2ABcA | G2B2G2g2G2B2 | G2e2G2B2AB cA || 
G2B2G2g2dB AG | AB cd ec BA cdef | gfed BcdB dB AG | BcdBg2B2d2g2 || 

